X: 1
T: La Maison de Glace
M: 6/8
L: 1/8
R: 6/8
K: D
"D"D3 DEF |"D/F#"ABA  AFA|"G"B3 Bcd|"A"cBA GFE|"D"D2D DEF|
"D/F#"ABA  AFA|1 "G"B3 BAG|"A"F3 EFE:|     [2 "G"B3 Bcd| "A  F#m"c6 ||
"Bm"B3- Bcd| "G"B3- Bcd|"D"fed "A"edc|"Bm"dcA "F#m"dcA|
"Bm"B3- Bcd| "G"B3- Bcd|"D"fed "A"edc|[1 Adc  "D"d2c|[2Adc  "D"d3||
%%text First two measures of lines 3 and 4 may be syncopated for excitement:
|"Bm"B2B- Bcd|"G"B2B- Bcd|


